**kern	**kern	**dynam
*part1	*part1	*part1
*staff2	*staff1	*
*I"Piano	*	*
*clefF4	*clefG2	*
*k[f#]	*k[f#]	*
=1	=1	=1
*^	*^	*
8dL	4D	(4a	8gL	.
8cn	.	.	8f#J	.
8B	8DL	8bL	8gL	<
8AJ)	8DJ	8ccJ)	8aJ	.
=	=	=	=	=
(4G	[4D	(4dd	(4b	[
8d)	8D]	8b)	8g)	.
*	*	*v	*v	*
8r	8r	8re	.
*v	*v	*	*
=	=	=
4r	4r	.
(4DD [4D	((4c 4f#	p
=	=	=
4GG) 4D]	4B)) 4g	.
8.GGL 8.Fn	(8.BL	<
16GGJk 16F	16BJk	.
=	=	=
*^	*	*
4.E	2GG	4d	[ >
.	.	[4c)	.
(8D#X^	.	.	.
=	=	=	=
8EL)	8GGL	8cL]	]
!	!	!LO:TX:a:i:t=dim.	!
(8Dn'	8GG	(8B'	.
8C'	8GG	8A'	.
8C#X'J)	8GGJ	8A#X'J)	.
=	=	=	=
*	*	*^	*
(2D	[2GG	(2B	(2B	.
=	=	=	=	=
8BB')	8GG']	8d')	8G')	.
*v	*v	*	*	*
*	*v	*v	*
8rGG	8re	.
4rGG;	4re;	.
=:|!	=:|!	=:|!
*-	*-	*-
!!!system-decoration: {(s1,s2)}
